X: 1411
T: Lady Forbes
R: reel
%S: s:4 b:16(4+4+4+4)
B: O'Neill's 1850 #1411
O: J.O'Neill
Z: Bob Safranek, rjs@gsp.org
M: C|
L: 1/8
K: D
[|   DFAd BAGF | Eeed cBAE |   DFAd BAGF | GBAG FDDF ||
|    DFAd BAGF | Eeef gecA |   DFAd BAGF | GBAG FDD2 |]
[|{e}dcdA dfed | cAeA fAeA |{e}dcdA dfed | cdef dcBA ||
| {e}dcdA dfed | cdef gfec |   dBAG FAdB | AGFE FDD2 |]
